public/logos/3N.svg

<?xml version="1.0" encoding="UTF-8"?>
<svg xmlns="http://www.w3.org/2000/svg" xmlns:xlink="http://www.w3.org/1999/xlink" width="176.65pt" height="59pt" viewBox="0 0 176.65 59" version="1.1">
<defs>
<clipPath id="clip1">
  <path d="M 150 14 L 176.648438 14 L 176.648438 39 L 150 39 Z M 150 14 "/>
</clipPath>
</defs>
<g id="surface1">
<path style=" stroke:none;fill-rule:nonzero;fill:rgb(100%,100%,100%);fill-opacity:1;" d="M 66.246094 29.5 C 66.246094 45.363281 53.386719 58.222656 37.523438 58.222656 C 21.65625 58.222656 8.796875 45.363281 8.796875 29.5 C 8.796875 13.636719 21.65625 0.777344 37.523438 0.777344 C 53.386719 0.777344 66.246094 13.636719 66.246094 29.5 "/>
<path style=" stroke:none;fill-rule:nonzero;fill:rgb(15.762329%,34.454346%,65.093994%);fill-opacity:1;" d="M 37.523438 1.550781 C 22.113281 1.550781 9.574219 14.089844 9.574219 29.5 C 9.574219 44.910156 22.113281 57.449219 37.523438 57.449219 C 52.933594 57.449219 65.46875 44.910156 65.46875 29.5 C 65.46875 14.089844 52.933594 1.550781 37.523438 1.550781 Z M 37.523438 59 C 21.257812 59 8.023438 45.765625 8.023438 29.5 C 8.023438 13.234375 21.257812 0 37.523438 0 C 53.789062 0 67.023438 13.234375 67.023438 29.5 C 67.023438 45.765625 53.789062 59 37.523438 59 "/>
<path style=" stroke:none;fill-rule:nonzero;fill:rgb(15.762329%,34.454346%,65.093994%);fill-opacity:1;" d="M 74.785156 50.410156 L 0 50.410156 L 0 48.644531 L 74.785156 48.644531 L 74.785156 50.410156 "/>
<path style=" stroke:none;fill-rule:nonzero;fill:rgb(93.084717%,91.230774%,2.578735%);fill-opacity:1;" d="M 4.722656 12.9375 L 39.851562 12.9375 C 39.851562 12.9375 55.246094 15.527344 54.988281 27.429688 C 54.988281 32.734375 51.496094 34.445312 51.496094 34.445312 L 46.96875 34.445312 C 46.96875 34.445312 52.53125 27.6875 48.519531 21.15625 C 45.21875 15.777344 39.980469 15.527344 39.980469 15.527344 L 6.21875 14.871094 L 4.722656 12.9375 "/>
<path style=" stroke:none;fill-rule:nonzero;fill:rgb(15.762329%,34.454346%,65.093994%);fill-opacity:1;" d="M 5.691406 14.230469 L 38.558594 14.230469 C 38.558594 14.230469 49.167969 16.042969 49.167969 26.394531 C 49.167969 33.640625 43.601562 34.445312 42.828125 34.445312 C 38.167969 34.445312 27.429688 34.445312 27.429688 34.445312 C 27.429688 34.445312 43.96875 24.449219 20.703125 18.632812 C 17.25 17.769531 17.027344 18.144531 12.078125 17.683594 C 7.542969 17.261719 5.691406 14.230469 5.691406 14.230469 "/>
<path style=" stroke:none;fill-rule:nonzero;fill:rgb(15.762329%,34.454346%,65.093994%);fill-opacity:1;" d="M 24.382812 38.023438 L 26.917969 38.023438 L 22.242188 42.808594 L 21.089844 43.988281 C 21 44.089844 20.925781 44.183594 20.863281 44.269531 C 20.625 44.617188 20.605469 44.90625 20.808594 45.132812 C 21.011719 45.359375 21.449219 45.472656 22.128906 45.472656 C 22.742188 45.472656 23.304688 45.390625 23.816406 45.226562 C 24.328125 45.0625 24.800781 44.820312 25.242188 44.492188 C 25.683594 44.167969 26.285156 43.617188 27.042969 42.839844 L 31.753906 38.023438 L 34.289062 38.023438 L 29.582031 42.84375 C 28.589844 43.859375 27.714844 44.636719 26.960938 45.171875 C 26.207031 45.710938 25.320312 46.148438 24.304688 46.484375 C 23.285156 46.820312 22.175781 46.988281 20.976562 46.988281 C 19.535156 46.988281 18.609375 46.734375 18.191406 46.234375 C 17.769531 45.730469 17.832031 45.085938 18.371094 44.292969 C 18.484375 44.132812 18.625 43.953125 18.796875 43.761719 C 18.90625 43.632812 19.253906 43.269531 19.839844 42.664062 L 24.382812 38.023438 "/>
<path style=" stroke:none;fill-rule:nonzero;fill:rgb(15.762329%,34.454346%,65.093994%);fill-opacity:1;" d="M 36.972656 41.863281 L 38.320312 41.863281 C 39.683594 41.863281 40.628906 41.808594 41.15625 41.691406 C 41.683594 41.578125 42.15625 41.394531 42.578125 41.144531 C 43.003906 40.898438 43.308594 40.636719 43.492188 40.363281 C 43.714844 40.042969 43.695312 39.800781 43.441406 39.644531 C 43.28125 39.542969 42.828125 39.496094 42.082031 39.496094 L 39.285156 39.496094 Z M 32.109375 46.839844 L 29.566406 46.839844 L 38.1875 38.023438 L 43.671875 38.023438 C 44.613281 38.023438 45.300781 38.09375 45.730469 38.230469 C 46.164062 38.371094 46.410156 38.625 46.484375 38.992188 C 46.554688 39.359375 46.410156 39.808594 46.050781 40.335938 C 45.535156 41.082031 44.796875 41.703125 43.835938 42.1875 C 42.875 42.675781 41.714844 42.976562 40.359375 43.09375 C 40.542969 43.300781 40.664062 43.578125 40.714844 43.914062 C 40.8125 44.605469 40.777344 45.582031 40.609375 46.839844 L 37.882812 46.839844 C 38.003906 46.339844 38.105469 45.566406 38.183594 44.511719 C 38.226562 43.941406 38.117188 43.558594 37.859375 43.363281 C 37.699219 43.246094 37.316406 43.1875 36.714844 43.1875 L 35.679688 43.1875 L 32.109375 46.839844 "/>
<path style=" stroke:none;fill-rule:nonzero;fill:rgb(15.762329%,34.454346%,65.093994%);fill-opacity:1;" d="M 53.367188 42.132812 L 58.894531 42.132812 L 55.191406 45.910156 C 54.335938 46.214844 53.363281 46.46875 52.273438 46.675781 C 51.183594 46.882812 50.148438 46.988281 49.164062 46.988281 C 47.636719 46.988281 46.636719 46.742188 46.15625 46.246094 C 45.507812 45.574219 45.621094 44.597656 46.496094 43.320312 C 47.082031 42.464844 47.882812 41.640625 48.898438 40.855469 C 50.117188 39.910156 51.433594 39.175781 52.847656 38.65625 C 54.261719 38.136719 55.679688 37.875 57.105469 37.875 C 58.53125 37.875 59.515625 38.109375 60.054688 38.585938 C 60.59375 39.054688 60.691406 39.746094 60.351562 40.652344 L 57.851562 40.84375 C 57.984375 40.347656 57.90625 39.972656 57.617188 39.71875 C 57.324219 39.46875 56.828125 39.34375 56.128906 39.34375 C 55.308594 39.34375 54.449219 39.492188 53.554688 39.796875 C 52.664062 40.101562 51.804688 40.574219 50.980469 41.210938 C 50.15625 41.847656 49.488281 42.542969 48.972656 43.296875 C 48.464844 44.039062 48.324219 44.585938 48.554688 44.941406 C 48.78125 45.296875 49.351562 45.472656 50.261719 45.472656 C 50.804688 45.472656 51.402344 45.417969 52.050781 45.308594 C 52.699219 45.199219 53.28125 45.066406 53.804688 44.914062 L 55.082031 43.601562 L 51.929688 43.601562 L 53.367188 42.132812 "/>
<path style=" stroke:none;fill-rule:nonzero;fill:rgb(15.762329%,34.454346%,65.093994%);fill-opacity:1;" d="M 80.632812 14.175781 L 92.464844 14.175781 L 91.710938 17.476562 L 90.9375 17.476562 C 90.1875 17.476562 89.714844 17.523438 89.515625 17.617188 C 89.1875 17.78125 88.933594 18.003906 88.757812 18.273438 C 88.582031 18.546875 88.433594 19.027344 88.320312 19.710938 L 86.242188 28.921875 L 86.136719 29.332031 C 85.957031 30.003906 85.863281 30.613281 85.863281 31.15625 C 85.863281 32.109375 86.246094 32.898438 87.007812 33.527344 C 87.769531 34.15625 88.757812 34.46875 89.96875 34.46875 C 90.933594 34.46875 91.816406 34.265625 92.609375 33.851562 C 93.410156 33.441406 94.078125 32.851562 94.621094 32.085938 C 95.160156 31.316406 95.597656 30.222656 95.933594 28.808594 L 98.058594 19.339844 C 98.125 19.019531 98.160156 18.710938 98.160156 18.414062 C 98.160156 18.097656 98.046875 17.859375 97.820312 17.707031 C 97.59375 17.550781 97.113281 17.476562 96.378906 17.476562 L 95.402344 17.476562 L 96.191406 14.175781 L 106.054688 14.175781 L 105.300781 17.476562 L 104.359375 17.476562 C 103.824219 17.476562 103.464844 17.511719 103.269531 17.578125 C 103.078125 17.648438 102.890625 17.773438 102.703125 17.960938 C 102.519531 18.148438 102.371094 18.375 102.261719 18.644531 C 102.148438 18.910156 102.035156 19.367188 101.921875 20.015625 L 99.5625 30.449219 C 99.375 31.183594 99.054688 32.039062 98.597656 33.015625 C 98.144531 33.992188 97.449219 34.902344 96.523438 35.746094 C 95.59375 36.589844 94.476562 37.246094 93.175781 37.722656 C 91.878906 38.199219 90.4375 38.433594 88.855469 38.433594 C 87.03125 38.433594 85.472656 38.128906 84.179688 37.519531 C 82.886719 36.910156 81.878906 36.066406 81.164062 34.980469 C 80.449219 33.898438 80.089844 32.742188 80.089844 31.511719 C 80.089844 30.757812 80.171875 30.019531 80.332031 29.289062 L 82.570312 19.339844 C 82.683594 18.847656 82.738281 18.546875 82.738281 18.433594 C 82.738281 18.078125 82.578125 17.816406 82.25 17.648438 C 82.027344 17.53125 81.578125 17.476562 80.90625 17.476562 L 79.914062 17.476562 L 80.632812 14.175781 "/>
<path style=" stroke:none;fill-rule:nonzero;fill:rgb(15.762329%,34.454346%,65.093994%);fill-opacity:1;" d="M 112.414062 24.261719 L 115.199219 24.261719 C 116.679688 24.261719 117.773438 24.125 118.488281 23.851562 C 119.207031 23.578125 119.765625 23.152344 120.167969 22.570312 C 120.566406 21.988281 120.769531 21.328125 120.769531 20.585938 C 120.769531 19.605469 120.394531 18.921875 119.644531 18.535156 C 118.894531 18.148438 117.695312 17.953125 116.050781 17.953125 L 113.855469 17.953125 Z M 105.847656 14.175781 L 117.304688 14.175781 C 119.9375 14.175781 121.871094 14.402344 123.109375 14.851562 C 124.347656 15.300781 125.300781 15.976562 125.96875 16.878906 C 126.640625 17.78125 126.976562 18.8125 126.976562 19.972656 C 126.976562 21.777344 126.320312 23.371094 125.015625 24.753906 C 123.710938 26.140625 121.867188 27.042969 119.484375 27.464844 L 122.894531 32.9375 C 123.40625 33.757812 123.839844 34.261719 124.191406 34.449219 C 124.542969 34.636719 125.296875 34.730469 126.445312 34.730469 L 125.710938 38.023438 L 119.230469 38.023438 L 113.640625 27.765625 L 111.617188 27.765625 L 110.386719 33.167969 C 110.308594 33.4375 110.269531 33.6875 110.269531 33.925781 C 110.269531 34.222656 110.414062 34.4375 110.710938 34.578125 C 110.941406 34.675781 111.375 34.722656 112.011719 34.722656 L 113.042969 34.722656 L 112.316406 38.023438 L 100.578125 38.023438 L 101.296875 34.722656 L 102.117188 34.722656 C 103.035156 34.722656 103.65625 34.609375 103.980469 34.375 C 104.308594 34.140625 104.550781 33.660156 104.714844 32.929688 L 107.734375 19.476562 C 107.835938 19.03125 107.886719 18.691406 107.886719 18.449219 C 107.886719 18.234375 107.832031 18.042969 107.71875 17.878906 C 107.605469 17.710938 107.457031 17.601562 107.273438 17.542969 C 107.152344 17.5 106.785156 17.476562 106.175781 17.476562 L 105.074219 17.476562 L 105.847656 14.175781 "/>
<path style=" stroke:none;fill-rule:nonzero;fill:rgb(15.762329%,34.454346%,65.093994%);fill-opacity:1;" d="M 151.179688 14.175781 L 151.980469 22.449219 L 148.425781 22.792969 C 148.257812 21.640625 147.90625 20.644531 147.382812 19.800781 C 146.859375 18.957031 146.222656 18.332031 145.46875 17.917969 C 144.71875 17.511719 143.875 17.304688 142.9375 17.304688 C 141.617188 17.304688 140.339844 17.714844 139.101562 18.535156 C 137.863281 19.355469 136.851562 20.585938 136.058594 22.21875 C 135.265625 23.855469 134.871094 25.589844 134.871094 27.425781 C 134.871094 28.871094 135.128906 30.15625 135.640625 31.28125 C 136.152344 32.402344 136.8125 33.230469 137.621094 33.769531 C 138.433594 34.304688 139.339844 34.570312 140.339844 34.570312 C 141.070312 34.570312 141.753906 34.449219 142.394531 34.203125 C 143.03125 33.957031 143.496094 33.667969 143.785156 33.332031 C 144.074219 32.996094 144.308594 32.46875 144.476562 31.75 L 144.835938 30.316406 C 144.882812 30.097656 144.90625 29.851562 144.90625 29.578125 C 144.90625 29.25 144.816406 29.003906 144.640625 28.84375 C 144.464844 28.683594 144.175781 28.605469 143.777344 28.605469 L 143.367188 28.621094 L 141.878906 28.621094 L 142.632812 25.324219 L 154.359375 25.324219 L 153.605469 28.621094 L 152.546875 28.621094 C 151.988281 28.621094 151.59375 28.675781 151.367188 28.785156 C 151.140625 28.894531 150.949219 29.066406 150.796875 29.304688 C 150.640625 29.542969 150.484375 30.019531 150.324219 30.722656 L 148.683594 38.023438 L 145.144531 38.023438 L 144.835938 36.589844 C 143.847656 37.238281 142.863281 37.707031 141.894531 38 C 140.929688 38.289062 139.894531 38.433594 138.800781 38.433594 C 135.859375 38.433594 133.390625 37.402344 131.382812 35.332031 C 129.378906 33.265625 128.375 30.65625 128.375 27.511719 C 128.375 25.015625 128.976562 22.714844 130.179688 20.613281 C 131.378906 18.511719 133.035156 16.84375 135.144531 15.613281 C 137.253906 14.382812 139.515625 13.765625 141.929688 13.765625 C 142.738281 13.765625 143.542969 13.835938 144.339844 13.980469 C 145.140625 14.121094 145.851562 14.320312 146.476562 14.570312 C 146.921875 14.738281 147.417969 15.027344 147.964844 15.421875 L 148.683594 14.175781 L 151.179688 14.175781 "/>
<g clip-path="url(#clip1)" clip-rule="nonzero">
<path style=" stroke:none;fill-rule:nonzero;fill:rgb(15.762329%,34.454346%,65.093994%);fill-opacity:1;" d="M 167.6875 26.980469 L 166.726562 19.710938 L 162.667969 26.980469 Z M 165.910156 14.175781 L 171.242188 14.175781 L 174.355469 32.742188 C 174.488281 33.503906 174.609375 33.976562 174.726562 34.160156 C 174.839844 34.34375 175.007812 34.484375 175.234375 34.582031 C 175.460938 34.675781 175.933594 34.722656 176.648438 34.722656 L 175.84375 38.023438 L 164.375 38.023438 L 165.144531 34.722656 L 166.253906 34.722656 C 167.03125 34.722656 167.554688 34.65625 167.816406 34.519531 C 168.277344 34.28125 168.511719 33.933594 168.511719 33.476562 C 168.511719 33.273438 168.460938 32.792969 168.355469 32.039062 L 168.101562 30.128906 L 160.714844 30.128906 L 159.128906 32.871094 C 158.8125 33.441406 158.652344 33.839844 158.652344 34.054688 C 158.652344 34.296875 158.78125 34.476562 159.046875 34.605469 C 159.203125 34.683594 159.652344 34.722656 160.390625 34.722656 L 161.414062 34.722656 L 160.664062 38.023438 L 150.40625 38.023438 L 151.214844 34.722656 C 151.820312 34.734375 152.285156 34.6875 152.601562 34.582031 C 152.917969 34.472656 153.1875 34.308594 153.414062 34.09375 C 153.644531 33.875 154.019531 33.363281 154.542969 32.554688 L 165.910156 14.175781 "/>
</g>
</g>
</svg>

<svg xmlns="http://www.w3.org/2000/svg" width="235.533" height="59pt" viewBox="0 0 176.65 59"><defs><clipPath id="a"><path d="M150 14h26.648v25H150Zm0 0"/></clipPath></defs><path d="M66.246 29.5c0 15.863-12.86 28.723-28.723 28.723-15.867 0-28.726-12.86-28.726-28.723S21.657.777 37.523.777c15.864 0 28.723 12.86 28.723 28.723" style="stroke:none;fill-rule:nonzero;fill:#fff;fill-opacity:1"/><path d="M37.523 1.55c-15.41 0-27.949 12.54-27.949 27.95s12.54 27.95 27.95 27.95S65.468 44.91 65.468 29.5 52.934 1.55 37.523 1.55m0 57.45c-16.265 0-29.5-13.234-29.5-29.5S21.258 0 37.523 0s29.5 13.234 29.5 29.5S53.79 59 37.523 59" style="stroke:none;fill-rule:nonzero;fill:#2858a6;fill-opacity:1"/><path d="M74.785 50.41H0v-1.765h74.785z" style="stroke:none;fill-rule:nonzero;fill:#2858a6;fill-opacity:1"/><path d="M4.723 12.938h35.129s15.394 2.59 15.136 14.492c0 5.304-3.492 7.015-3.492 7.015H46.97s5.562-6.757 1.55-13.289c-3.3-5.379-8.539-5.629-8.539-5.629L6.22 14.871z" style="stroke:none;fill-rule:nonzero;fill:#ede907;fill-opacity:1"/><path d="M5.691 14.23H38.56s10.609 1.813 10.609 12.165c0 7.246-5.566 8.05-6.34 8.05H27.43s16.539-9.996-6.727-15.812c-3.453-.863-3.676-.488-8.625-.95-4.535-.421-6.387-3.453-6.387-3.453M24.383 38.023h2.535l-4.676 4.786-1.152 1.18q-.134.151-.227.28-.358.523-.054.864c.203.226.64.34 1.32.34q.92 0 1.687-.246a4.9 4.9 0 0 0 1.426-.735q.663-.486 1.801-1.652l4.71-4.817h2.536l-4.707 4.82q-1.489 1.525-2.621 2.329-1.132.808-2.656 1.312-1.53.504-3.328.504c-1.442 0-2.368-.254-2.786-.754-.421-.504-.359-1.148.18-1.941.113-.16.254-.34.426-.531.11-.13.457-.492 1.043-1.098zM36.973 41.863h1.347c1.364 0 2.309-.054 2.836-.172q.79-.17 1.422-.546.639-.37.914-.782c.223-.32.203-.562-.05-.718q-.24-.151-1.36-.149h-2.797Zm-4.864 4.977h-2.543l8.622-8.817h5.484q1.413 0 2.058.207c.434.141.68.395.754.762q.105.552-.433 1.344c-.516.746-1.254 1.367-2.215 1.852q-1.442.731-3.477.906c.184.207.305.484.356.82q.146 1.038-.106 2.926h-2.726q.181-.748.3-2.328.064-.855-.324-1.149-.241-.175-1.144-.175H35.68zM53.367 42.133h5.528L55.19 45.91q-1.283.456-2.918.766-1.634.311-3.109.312c-1.527 0-2.527-.246-3.008-.742q-.972-1.008.34-2.926c.586-.855 1.387-1.68 2.402-2.465a14.7 14.7 0 0 1 3.95-2.199q2.12-.78 4.257-.781c1.426 0 2.41.234 2.95.71q.807.706.297 2.067l-2.5.192q.198-.744-.235-1.125-.44-.375-1.488-.375c-.82 0-1.68.148-2.574.453q-1.336.458-2.575 1.414-1.235.955-2.007 2.086-.763 1.112-.418 1.644.34.533 1.707.532.815 0 1.789-.164c.648-.11 1.23-.243 1.754-.395l1.277-1.312H51.93zM80.633 14.176h11.832l-.754 3.3h-.773q-1.124 0-1.422.141a1.9 1.9 0 0 0-.758.656q-.266.412-.438 1.438l-2.078 9.21-.105.411q-.272 1.009-.274 1.824.001 1.428 1.145 2.371t2.96.942q1.45.002 2.641-.617 1.2-.616 2.012-1.766.81-1.155 1.313-3.277l2.125-9.47q.1-.48.101-.925c0-.316-.113-.555-.34-.707-.226-.156-.707-.23-1.441-.23h-.977l.79-3.301h9.863l-.754 3.3h-.942c-.535 0-.894.036-1.09.102a1.6 1.6 0 0 0-.566.383 2.1 2.1 0 0 0-.441.684q-.17.398-.34 1.37l-2.36 10.434q-.28 1.102-.964 2.567c-.453.976-1.149 1.886-2.075 2.73-.93.844-2.046 1.5-3.347 1.977-1.297.476-2.739.71-4.32.71q-2.737 0-4.676-.913-1.942-.913-3.016-2.54-1.073-1.623-1.074-3.468c0-.754.082-1.492.242-2.223l2.238-9.95q.17-.736.168-.905c0-.356-.16-.618-.488-.786-.223-.117-.672-.171-1.344-.171h-.992z" style="stroke:none;fill-rule:nonzero;fill:#2858a6;fill-opacity:1"/><path d="M112.414 24.262h2.785c1.48 0 2.574-.137 3.29-.41q1.077-.41 1.679-1.282a3.43 3.43 0 0 0 .602-1.984q0-1.47-1.125-2.05-1.127-.582-3.594-.583h-2.196Zm-6.566-10.086h11.457q3.948 0 5.804.676 1.858.674 2.86 2.027 1.008 1.353 1.008 3.094c0 1.804-.657 3.398-1.961 4.78q-1.958 2.08-5.532 2.712l3.41 5.473q.77 1.23 1.297 1.511.53.281 2.254.281l-.734 3.293h-6.48l-5.59-10.257h-2.024l-1.23 5.402c-.078.27-.117.52-.117.758 0 .297.144.511.44.652q.346.146 1.302.145h1.031l-.727 3.3h-11.738l.719-3.3h.82q1.378.002 1.863-.348c.329-.234.57-.715.735-1.445l3.02-13.453c.1-.446.152-.786.152-1.028a1 1 0 0 0-.168-.57.82.82 0 0 0-.446-.336q-.182-.065-1.097-.066h-1.102zM151.18 14.176l.8 8.273-3.554.344c-.168-1.152-.52-2.148-1.043-2.992-.524-.844-1.16-1.469-1.914-1.883-.75-.406-1.594-.613-2.531-.613q-1.98 0-3.836 1.23c-1.239.82-2.25 2.05-3.043 3.684a11.8 11.8 0 0 0-1.188 5.207q.001 2.168.77 3.855.767 1.681 1.98 2.489 1.22.801 2.719.8 1.094.002 2.055-.367.955-.368 1.39-.871c.29-.336.524-.863.692-1.582l.359-1.434q.07-.327.07-.738-.001-.493-.265-.734-.265-.24-.864-.239l-.41.016h-1.488l.754-3.297h11.726l-.754 3.297h-1.058q-.839 0-1.18.164-.34.163-.57.52c-.156.238-.313.715-.473 1.418l-1.64 7.3h-3.54l-.308-1.433c-.988.648-1.973 1.117-2.941 1.41-.965.29-2 .434-3.094.434-2.942 0-5.41-1.032-7.418-3.102-2.004-2.066-3.008-4.676-3.008-7.82q0-3.745 1.805-6.899a13.4 13.4 0 0 1 4.965-5q3.163-1.846 6.785-1.847 1.213-.001 2.41.214 1.2.213 2.137.59c.445.168.941.457 1.488.852l.719-1.246z" style="stroke:none;fill-rule:nonzero;fill:#2858a6;fill-opacity:1"/><g clip-path="url(#a)"><path d="m167.688 26.98-.961-7.27-4.059 7.27Zm-1.778-12.804h5.332l3.113 18.566c.133.762.254 1.235.372 1.418q.168.275.507.422.342.14 1.414.14l-.804 3.301h-11.469l.77-3.3h1.109q1.167 0 1.562-.203c.461-.239.696-.586.696-1.043q.001-.306-.157-1.438l-.253-1.91h-7.387l-1.586 2.742c-.316.57-.477.969-.477 1.184 0 .242.13.422.395.55q.235.118 1.344.118h1.023l-.75 3.3h-10.258l.809-3.3q.91.017 1.387-.141.473-.165.812-.488.345-.327 1.129-1.54z" style="stroke:none;fill-rule:nonzero;fill:#2858a6;fill-opacity:1"/></g></svg>
